X:1
T:Title
%%score ( 1 2 ) ( 3 4 )
L:1/8
Q:1/4=96
M:4/4
K:G
V:1 treble nm="Midi_20"
V:2 treble 
V:3 bass nm="Midi_20"
V:4 bass 
V:1
"^Clarence (77. 77.)" E3 E E2 F2 | G2 F2 E4 | F3 F F2 G2 | %3
 A2 G2"^Arranged by Sir Arthur Sullivan\n(1842-1900)" F4 || G2 c2 c2 B2 | E2 A2 (A2 G2) | %6
 F2 F2 G2 (FE) | E2 ^D2 E4 ||[K:E] B3 B B2 B2 | e2 B2 (B2 G2) | F3 F F2 G2 | A2 G2 F4 || %12
 G2 c2 c2 B2 | E2 A2 (A2 G2) | F2 c2 d2 e2 | B2 D2 E4 |] %16
V:2
 E3 E E2 F2 | G2 F2 E4 | ^D3 D D2 E2 | F2 E2 ^D4 || E2 E2 F2 F2 | E2 E2 E4 | E2 E2 E2 B,2 | %7
 B,2 B,2 B,4 ||[K:E] E3 E E2 F2 | G2 F2 E4 | D3 D D2 E2 | F2 E2 D4 || E2 E2 F2 F2 | E2 E2 ^E4 | %14
 F2 F2 F2 F2 | E2 B,2 B,4 |] %16
V:3
 E,3 E, E,2 F,2 | G,2 F,2 E,4 | B,3 B, B,2 B,2 | B,2 B,2 B,4 || B,2 G,2 F,2 B,2 | G,2 E,2 B,4 | %6
 C2 C2 B,2 (A,G,) | F,2 F,2 G,4 ||[K:E] G,3 G, G,2 A,2 | B,2 A,2 G,4 | B,3 B, B,2 B,2 | %11
 B,2 B,2 B,4 || B,2 G,2 F,2 B,2 | C2 C2 =D4 | C2 C2 B,2 A,2 | G,2 A,2 G,4 |] %16
V:4
 E,3 E, E,2 F,2 | G,2 F,2 E,4 | B,,3 B,, B,,2 E,2 | ^D,2 E,2 B,,4 || E,2 E,2 D,2 D,2 | %5
 C,2 C,2 B,,4 | A,,2 A,,2 B,,2 B,,2 | B,,2 B,,2 E,4 ||[K:E] E,3 E, E,2 E,2 | E,2 E,2 E,4 | %10
 B,,3 B,, B,,2 E,2 | D,2 E,2 B,,4 || E,2 E,2 D,2 D,2 | C,2 C,2 B,,4 | A,,2 A,2 G,2 F,2 | %15
 B,,2 B,,2 E,4 |] %16

